src/android-checkbox-outline.svg

<?xml version="1.0" encoding="utf-8"?>
<!-- Generated by IcoMoon.io -->
<!DOCTYPE svg PUBLIC "-//W3C//DTD SVG 1.1//EN" "http://www.w3.org/Graphics/SVG/1.1/DTD/svg11.dtd">
<svg version="1.1" xmlns="http://www.w3.org/2000/svg" xmlns:xlink="http://www.w3.org/1999/xlink" width="512" height="512" viewBox="0 0 512 512">
<path fill="#000000" d="M168.531 215.469l-29.864 29.864 96 96 213.333-213.333-29.864-29.864-183.469 182.395-66.136-65.062zM405.333 405.333h-298.666v-298.666h213.333v-42.667h-213.333c-23.469 0-42.667 19.198-42.667 42.667v298.666c0 23.469 19.198 42.667 42.667 42.667h298.666c23.469 0 42.667-19.198 42.667-42.667v-170.666h-42.667v170.666z"></path>
</svg>

<?xml version="1.0" encoding="utf-8"?>
<!-- Generator: Adobe Illustrator 16.2.1, SVG Export Plug-In . SVG Version: 6.00 Build 0)  -->
<!DOCTYPE svg PUBLIC "-//W3C//DTD SVG 1.1//EN" "http://www.w3.org/Graphics/SVG/1.1/DTD/svg11.dtd">
<svg version="1.1" id="Layer_1" xmlns="http://www.w3.org/2000/svg" xmlns:xlink="http://www.w3.org/1999/xlink" x="0px" y="0px"
	 width="512px" height="512px" viewBox="0 0 512 512" enable-background="new 0 0 512 512" xml:space="preserve">
<g id="Icon_24_">
	<g>
		<path d="M168.531,215.469l-29.864,29.864l96,96L448,128l-29.864-29.864L234.667,280.531L168.531,215.469z M405.333,405.333
			H106.667V106.667H320V64H106.667C83.198,64,64,83.198,64,106.667v298.666C64,428.802,83.198,448,106.667,448h298.666
			C428.802,448,448,428.802,448,405.333V234.667h-42.667V405.333z"/>
	</g>
</g>
</svg>
